X:1
T:Title
%%score { ( 1 3 ) | 2 }
L:1/8
Q:1/4=92
M:6/8
K:Ab
V:1 treble nm="Grand Piano"
V:3 treble 
V:2 bass 
V:1
 [Ec]2 [Ee] [Ec]2 [EA] | [FA]2 [DF] [CE]2 [EA] | B2 B c2 d | c6 | [Ec]2 [Ee] [Ec]2 [EA] | %5
w: W.~A.~Ogden * * *|||||
 [FA]2 [DF] [CE]2 [CA] | A2 A c2 B | [CA]6 | B2 B c2 d | c6 | c2 d e2 c | d6 | %12
w: |||||||
 [Ec]2 [Ee] [Ec]2 [EA] | [FA]2 [DF] [CE]2 [CA] | A2 A c2 B | [CA]6 |] %16
w: ||||
V:2
 [A,,A,]2 [A,,C] [A,,A,]2 [C,A,] | [D,A,]2 [D,A,] [A,,A,]2 [C,A,] | %2
 [E,G,E]2 [E,G,E] [E,A,E]2 [E,B,E] | [A,E]6 | [A,,A,]2 [A,,C] [A,,A,]2 [C,A,] | %5
 [D,A,]2 [D,A,] [A,,A,]2 [A,,A,] | [F,A,C]2 [F,A,C] [E,A,E]2 [E,G,D] | [A,,A,]6 | %8
 [E,G,E]2 [E,G,E] [E,A,E]2 [E,B,E] | [A,E]2 A, .A,3 | [A,E]2 [A,B,E] [A,CA]2 [A,EA] | %11
 [E,E]2 [E,E] .[E,B,]3 | [A,,A,]2 [A,,C] [A,,A,]2 [C,A,] | [D,A,]2 [D,A,] [A,,A,]2 [A,,A,] | %14
 [F,A,C]2 [F,A,C] [E,A,E]2 [E,G,D] | [A,,A,]6 |] %16
V:3
 x6 | x6 | x6 | x6 | x6 | x6 | x6 | x6 | x6 | z2 E .E3 | x6 | G2 F .E3 | x6 | x6 | x6 | x6 |] %16

